X: 1
T:Patsy Geary's
M:6/8
L:1/8
Q:80
C:Arranged by T. Tully
S:Jig
K:HP
f|
{g}G2A{g}A{d}A{e}A|
B{e}B{G}B{g}A{d}A{e}A|
{g}G2{d}A{g}d2e|  !
{gfg}f3{g}A{d}Be|
{gf}g3{a}f3|
{g}efed{e}d{c}d|  !
{g}A{d}A{e}A{g}fed|
e{g}e{A}e{g}Adf{g}G2A{g}A{d}A{e}A|
B{e}B{G}B{g}A{d}A{e}A|  !
{g}G2{d}A{g}d2e|
{gfg}f3{g}A{d}Be|
{gf}g3{a}f3|  !
{g}efed{e}d{c}d|
{g}A{d}A{e}A{g}f2e|
{Gdc}d3{gdc}d2|]  !
e|
{gfg}f2A{gfg}f2e|
{gfg}f2A{g}fga|
A{d}A{e}A{g}BAG|  !
A{d}A{e}A{g}ABd|
e{g}e{A}e{g}eAe|
{g}efed{e}d{c}d|  !
{g}faf{g}efe|
d{e}d{c}d{g}d2e{gfg}f2A{gfg}f2e|
{gfg}f2A{g}fga|  !
A{d}A{e}A{g}BAG|
A{d}A{e}A{g}ABd|
e{g}e{A}e{g}eAe|  !
{g}efed{e}d{c}d|
{g}faf{g}efe|
{Gdc}d3{gdc}d2|]  !
